Numix-Circle/48x48/apps/kdeconnect.svg

<?xml version="1.0" encoding="UTF-8" standalone="no"?>
<svg
   xmlns:dc="http://purl.org/dc/elements/1.1/"
   xmlns:cc="http://creativecommons.org/ns#"
   xmlns:rdf="http://www.w3.org/1999/02/22-rdf-syntax-ns#"
   xmlns:svg="http://www.w3.org/2000/svg"
   xmlns="http://www.w3.org/2000/svg"
   xmlns:xlink="http://www.w3.org/1999/xlink"
   xmlns:sodipodi="http://sodipodi.sourceforge.net/DTD/sodipodi-0.dtd"
   xmlns:inkscape="http://www.inkscape.org/namespaces/inkscape"
   viewBox="0 0 48 48"
   id="svg2"
   version="1.1"
   inkscape:version="0.91 r13725"
   width="100%"
   height="100%"
   sodipodi:docname="kdeconnect.svg">
  <metadata
     id="metadata65">
    <rdf:RDF>
      <cc:Work
         rdf:about="">
        <dc:format>image/svg+xml</dc:format>
        <dc:type
           rdf:resource="http://purl.org/dc/dcmitype/StillImage" />
        <dc:title></dc:title>
      </cc:Work>
    </rdf:RDF>
  </metadata>
  <sodipodi:namedview
     pagecolor="#ffffff"
     bordercolor="#666666"
     borderopacity="1"
     objecttolerance="10"
     gridtolerance="10"
     guidetolerance="10"
     inkscape:pageopacity="0"
     inkscape:pageshadow="2"
     inkscape:window-width="1366"
     inkscape:window-height="713"
     id="namedview63"
     showgrid="false"
     inkscape:zoom="11.313708"
     inkscape:cx="24.187099"
     inkscape:cy="23.561799"
     inkscape:window-x="0"
     inkscape:window-y="28"
     inkscape:window-maximized="1"
     inkscape:current-layer="svg2"
     showguides="true"
     inkscape:guide-bbox="true">
    <inkscape:grid
       type="xygrid"
       id="grid3847" />
  </sodipodi:namedview>
  <defs
     id="defs4">
    <linearGradient
       id="linearGradient3839">
      <stop
         style="stop-color:#224376;stop-opacity:1"
         offset="0"
         id="stop3841" />
      <stop
         style="stop-color:#264c86;stop-opacity:1"
         offset="1"
         id="stop3843" />
    </linearGradient>
    <linearGradient
       inkscape:collect="always"
       xlink:href="#linearGradient3839"
       id="linearGradient3845"
       x1="24"
       y1="47"
       x2="24"
       y2="1"
       gradientUnits="userSpaceOnUse" />
  </defs>
  <g
     id="g21">
    <path
       d="m 36.31 5 c 5.859 4.062 9.688 10.831 9.688 18.5 c 0 12.426 -10.07 22.5 -22.5 22.5 c -7.669 0 -14.438 -3.828 -18.5 -9.688 c 1.037 1.822 2.306 3.499 3.781 4.969 c 4.085 3.712 9.514 5.969 15.469 5.969 c 12.703 0 23 -10.298 23 -23 c 0 -5.954 -2.256 -11.384 -5.969 -15.469 c -1.469 -1.475 -3.147 -2.744 -4.969 -3.781 z m 4.969 3.781 c 3.854 4.113 6.219 9.637 6.219 15.719 c 0 12.703 -10.297 23 -23 23 c -6.081 0 -11.606 -2.364 -15.719 -6.219 c 4.16 4.144 9.883 6.719 16.219 6.719 c 12.703 0 23 -10.298 23 -23 c 0 -6.335 -2.575 -12.06 -6.719 -16.219 z"
       opacity="0.05"
       id="path23" />
    <path
       d="m 41.28 8.781 c 3.712 4.085 5.969 9.514 5.969 15.469 c 0 12.703 -10.297 23 -23 23 c -5.954 0 -11.384 -2.256 -15.469 -5.969 c 4.113 3.854 9.637 6.219 15.719 6.219 c 12.703 0 23 -10.298 23 -23 c 0 -6.081 -2.364 -11.606 -6.219 -15.719 z"
       opacity="0.1"
       id="path25" />
    <path
       d="m 31.25 2.375 c 8.615 3.154 14.75 11.417 14.75 21.13 c 0 12.426 -10.07 22.5 -22.5 22.5 c -9.708 0 -17.971 -6.135 -21.12 -14.75 a 23 23 0 0 0 44.875 -7 a 23 23 0 0 0 -16 -21.875 z"
       opacity="0.2"
       id="path27" />
  </g>
  <g
     id="g29">
    <path
       d="m 24 1 c 12.703 0 23 10.297 23 23 c 0 12.703 -10.297 23 -23 23 -12.703 0 -23 -10.297 -23 -23 0 -12.703 10.297 -23 23 -23 z"
       fill="url(#linearGradient3764)"
       fill-opacity="1"
       id="path31"
       style="fill:url(#linearGradient3845);fill-opacity:1.0" />
  </g>
  <g
     id="g33" />
  <path
     style="opacity:1;fill:#000000;fill-opacity:0.09803922;fill-rule:nonzero;stroke:none;stroke-width:2;stroke-miterlimit:4;stroke-dasharray:none;stroke-dashoffset:0;stroke-opacity:1"
     d="M 17.599609 12 C 17.267209 12 17 12.267209 17 12.599609 L 17 22.619141 C 16.569612 22.794536 16.113533 23.073393 15.775391 22.859375 L 13.916016 21 L 11.916016 23 L 10.916016 21 C 10.374395 21.750946 9.92605 22.607758 9.328125 23.294922 C 8.589585 23.65043 7.9999997 23.999655 7.0273438 24 L 1 24 C 1 24.674441 1.0349269 25.340305 1.0917969 26 L 8.0039062 26 C 8.6866692 26.379618 9.5358666 26.614992 9.8535156 27.408203 L 10.916016 29 L 11.916016 27 L 13.916016 29 L 15.916016 27 C 16.25579 27.033874 16.643904 27.272902 17 27.376953 L 17 37.400391 C 17 37.732791 17.267209 38 17.599609 38 L 32.400391 38 C 32.732791 38 33 37.732791 33 37.400391 L 33 26.189453 L 34.916016 30.5 L 36.916016 27 L 38.916016 29 L 39.916016 26 L 41.916016 28 C 42.625693 27.357666 43.257555 26.525503 44.015625 26 L 46.908203 26 C 46.965073 25.340305 47 24.674441 47 24 L 43.916016 24 L 41.916016 22 L 39.916016 24 L 38.916016 21 L 36.916016 23 L 34.916016 19.5 L 33 23.810547 L 33 12.599609 C 33 12.267209 32.732791 12 32.400391 12 L 17.599609 12 z "
     id="rect4238" />
  <path
     inkscape:connector-curvature="0"
     style="fill:#e63232;fill-opacity:1"
     d="m 23.916016,15.000345 c -0.414896,1.44277 -0.629574,2.960043 -1.177735,4.353516 l -0.822265,1.646484 c -0.648016,-0.0829 -1.224534,-0.04988 -1.353516,0.707031 -0.244219,0.273683 -0.622691,1.772676 -0.742188,0.910157 l -0.904296,-3.617188 -1,4 -1.5,-1.5 c -0.530712,0.05291 -1.189768,0.644732 -1.640625,0.359375 l -1.859375,-1.859375 -2,2 -1.0000004,-2 C 9.3743953,20.751291 8.9260503,21.608103 8.328125,22.295267 7.5895847,22.650775 7,23 6.0273438,23.000345 l -5.0019528,0 C 1.011179,23.332243 1,23.664947 1,24.000345 c 0,0.335398 0.01118,0.668102 0.02539,1 C 3,25 5,25 7.0039056,25 7.686668,25.379618 8.5358662,25.615335 8.853515,26.408546 l 1.0625006,1.591799 1.0000004,-2 2,2 2,-2 c 0.530712,0.05291 1.187814,0.644732 1.638672,0.359375 l 1.361328,-1.359375 1,4 1,-4 1,2 c 0.648016,-0.0829 1.224533,-0.04988 1.353515,0.707031 0.898248,1.469855 1.061192,3.212312 1.533203,4.839844 0.134151,1.001691 0.365311,-0.524774 0.550782,-0.859375 0.353111,-1.298783 0.936439,-2.501776 1.5625,-3.6875 0.660157,0.08793 1.231866,0.05283 1.25,-0.75 l 0.75,-2.25 2,1.5 2,-1.5 2,4.5 2,-3.5 2,2 1,-3 2,2 c 0.709677,-0.642334 1.341539,-1.474497 2.099609,-2 l 3.958984,0 c 0.01421,-0.331898 0.02539,-0.664602 0.02539,-1 0,-0.335398 -0.01118,-0.668102 -0.02539,-1 l -4.058593,0 -2,-2 -2,2 -1,-3 -2,2 -2,-3.5 -2,4.5 -2,-1.5 -2,1.5 -2,-4 c -0.666987,0.08992 -1.235636,0.05342 -1.191407,-0.767578 z"
     id="path31-2"
     sodipodi:nodetypes="cccccccccccccccscccccccccccccccccccccccccccsccccccccccccc" />
  <g
     id="g59">
    <path
       d="m 40.03 7.531 c 3.712 4.084 5.969 9.514 5.969 15.469 0 12.703 -10.297 23 -23 23 c -5.954 0 -11.384 -2.256 -15.469 -5.969 4.178 4.291 10.01 6.969 16.469 6.969 c 12.703 0 23 -10.298 23 -23 0 -6.462 -2.677 -12.291 -6.969 -16.469 z"
       opacity="0.1"
       id="path61" />
  </g>
  <g
     transform="scale(0.98451788,1.0157256)"
     style="font-size:13.6171217px;font-style:normal;font-weight:normal;line-height:125%;letter-spacing:0px;word-spacing:0px;fill:#000000;fill-opacity:1;stroke:none;font-family:Sans"
     id="text3880" />
  <g
     transform="scale(1.0060815,0.99395525)"
     style="font-size:19.87910461px;font-style:normal;font-variant:normal;font-weight:normal;font-stretch:normal;line-height:125%;letter-spacing:0px;word-spacing:0px;fill:#000000;fill-opacity:1;stroke:none;font-family:Montserrat;-inkscape-font-specification:Montserrat"
     id="text3023" />
  <g
     transform="matrix(1.0296335,0,0,0.97121938,-0.03651564,2.4817894e-7)"
     style="font-size:18.98816872px;font-style:normal;font-variant:normal;font-weight:normal;font-stretch:normal;line-height:125%;letter-spacing:0px;word-spacing:0px;fill:#000000;fill-opacity:1;stroke:none;font-family:Montserrat;-inkscape-font-specification:Montserrat"
     id="text3791" />
  <path
     inkscape:connector-curvature="0"
     style="fill:#000000;fill-opacity:0.09803922"
     d="M 31.916016,25.000345 33,27.439798 33,20.560892 31.916016,23.000345 C 31,23 31,25 31.916016,25.000345 Z"
     id="path31-2-2"
     sodipodi:nodetypes="ccccc" />
  <g
     id="g4325">
    <rect
       ry="0.60000002"
       rx="0.60000002"
       y="11"
       x="16"
       height="26"
       width="16"
       id="rect4181"
       style="opacity:1;fill:#e6e6e6;fill-opacity:1;fill-rule:nonzero;stroke:none;stroke-width:2;stroke-miterlimit:4;stroke-dasharray:none;stroke-dashoffset:0;stroke-opacity:1" />
    <rect
       y="12"
       x="17"
       height="22"
       width="14"
       id="rect4183"
       style="opacity:1;fill:#333333;fill-opacity:1;fill-rule:nonzero;stroke:none;stroke-width:2;stroke-miterlimit:4;stroke-dasharray:none;stroke-dashoffset:0;stroke-opacity:1" />
    <path
       style="fill:#f2f2f2;fill-opacity:1;fill-rule:evenodd;stroke:none"
       inkscape:connector-curvature="0"
       d="m 25,17 -2,0.145622 0,8.306661 2,-0.253944 0,-3.626197 c 0.904301,1.364697 1.586759,2.634416 2.797491,3.954124 l 2.159521,-0.620862 C 28.800768,23.5657 27.93746,22.385961 27.149134,21.099746 c 0.820319,-1.208732 1.84709,-2.423463 2.850868,-3.509223 L 27.761999,17.041645 C 26.71723,18.218884 25.831817,19.435615 25,20.657844 m -4.794829,-1.956567 c -0.02949,0.004 -0.06448,0.0215 -0.09198,0.04899 -0.245946,0.232449 -0.478394,0.464897 -0.72234,0.697346 -0.107477,0.103477 0.002,0.22645 0.04899,0.312431 l 0.49589,0.685348 0.370918,0.499889 c 0.05249,0.07248 0.06849,0.07998 0.04099,0.130971 -0.03299,0.05249 -0.06049,0.09548 -0.09198,0.148468 -0.482393,0.81032 -0.144468,0.872806 -1.177239,1.136248 l -0.790825,0.130971 c -0.116974,0.03899 -0.26944,0.03499 -0.277439,0.197456 0,0.327928 -0.01,0.654355 -0.01,0.980283 -0.006,0.150467 0.161964,0.163964 0.261442,0.189458 l 0.841813,0.146468 0.630861,0.114974 c 0.08598,0.0115 0.105476,-0.008 0.124972,0.05649 0.257943,1.087759 0.595368,0.837814 0.03299,1.788604 l -0.4529,0.63086 c -0.06049,0.109476 -0.171962,0.216952 -0.05849,0.327928 0.238447,0.236447 0.466896,0.474395 0.706843,0.710842 0.105477,0.103477 0.241947,-0.002 0.327928,-0.04899 l 0.697345,-0.484393 0.521385,-0.351422 c 0.07248,-0.05849 0.08198,-0.07248 0.13497,-0.04099 1.044769,0.638359 1.08176,0.177461 1.386193,1.251723 l 0.150467,0.76933 c 0.03899,0.114974 0.04299,0.263441 0.202955,0.26944 l 1.015275,0 c 0.152466,0 0.165963,-0.173961 0.185459,-0.26944 l 0.142468,-0.818319 0.101478,-0.605366 c 0.006,-0.05849 0.004,-0.08798 0.0155,-0.107476 1.224229,-0.251945 0.919796,-0.607366 1.915576,-0.04099 l 0.646357,0.441402 c 0.118973,0.05849 0.232448,0.159965 0.345423,0.05099 0.239946,-0.22645 0.478393,-0.4549 0.71884,-0.67935 0.107476,-0.109476 0.002,-0.234448 -0.04899,-0.318429 l -0.01,0 -0.470396,-0.646357 -0.31043,0.105476 c -0.07998,0.05249 -0.185459,0.03299 -0.279438,-0.08998 l -0.67935,-0.874806 c -0.634859,0.855311 -1.661632,1.407688 -2.825375,1.407688 -1.915575,0 -3.479729,-1.521163 -3.479729,-3.38775 0,-1.325706 0.788825,-2.473952 1.933072,-3.029329 l 0,-0.779327 c -0.03899,0.01949 -0.08398,0.02949 -0.116974,0.04099 -0.447401,0.181459 -0.476395,0.263441 -1.208733,-0.146468 l -0.646356,-0.448901 c -0.08998,-0.03899 -0.169963,-0.113474 -0.251945,-0.09398 m 2.220009,1.741615 c -0.972285,0.534881 -1.632639,1.560154 -1.632639,2.725896 0,1.720119 1.441181,3.126308 3.214289,3.126308 1.095258,0 2.056045,-0.54088 2.635916,-1.363198 l -0.03149,-0.06649 c -0.679349,0.734338 -1.447179,1.210732 -2.614421,1.236227 -1.454678,0.02549 -2.926852,-1.236227 -2.93485,-2.897859 -0.0115,-1.072262 0.49589,-1.792603 1.361198,-2.305989 l 0,-0.4509"
       id="path53"
       sodipodi:nodetypes="ccccccccccccccccccccccccccccccccccccccsccccccccccccccsscccccccsscccccc" />
    <rect
       ry="0.5"
       rx="0.5"
       y="35"
       x="22"
       height="1"
       width="4"
       id="rect4191"
       style="opacity:1;fill:#333333;fill-opacity:1;fill-rule:nonzero;stroke:none;stroke-width:2;stroke-miterlimit:4;stroke-dasharray:none;stroke-dashoffset:0;stroke-opacity:1" />
  </g>
</svg>

<svg xmlns="http://www.w3.org/2000/svg" viewBox="0 0 48 48">
 <defs>
  <linearGradient id="linearGradient3845" y1="47" x2="0" y2="1" gradientUnits="userSpaceOnUse">
   <stop style="stop-color:#224376;stop-opacity:1"/>
   <stop offset="1" style="stop-color:#264c86;stop-opacity:1"/>
  </linearGradient>
 </defs>
 <g>
  <path d="m 36.31 5 c 5.859 4.062 9.688 10.831 9.688 18.5 c 0 12.426 -10.07 22.5 -22.5 22.5 c -7.669 0 -14.438 -3.828 -18.5 -9.688 c 1.037 1.822 2.306 3.499 3.781 4.969 c 4.085 3.712 9.514 5.969 15.469 5.969 c 12.703 0 23 -10.298 23 -23 c 0 -5.954 -2.256 -11.384 -5.969 -15.469 c -1.469 -1.475 -3.147 -2.744 -4.969 -3.781 z m 4.969 3.781 c 3.854 4.113 6.219 9.637 6.219 15.719 c 0 12.703 -10.297 23 -23 23 c -6.081 0 -11.606 -2.364 -15.719 -6.219 c 4.16 4.144 9.883 6.719 16.219 6.719 c 12.703 0 23 -10.298 23 -23 c 0 -6.335 -2.575 -12.06 -6.719 -16.219 z" style="opacity:0.05"/>
  <path d="m 41.28 8.781 c 3.712 4.085 5.969 9.514 5.969 15.469 c 0 12.703 -10.297 23 -23 23 c -5.954 0 -11.384 -2.256 -15.469 -5.969 c 4.113 3.854 9.637 6.219 15.719 6.219 c 12.703 0 23 -10.298 23 -23 c 0 -6.081 -2.364 -11.606 -6.219 -15.719 z" style="opacity:0.1"/>
  <path d="m 31.25 2.375 c 8.615 3.154 14.75 11.417 14.75 21.13 c 0 12.426 -10.07 22.5 -22.5 22.5 c -9.708 0 -17.971 -6.135 -21.12 -14.75 a 23 23 0 0 0 44.875 -7 a 23 23 0 0 0 -16 -21.875 z" style="opacity:0.2"/>
 </g>
 <g>
  <path d="m 24 1 c 12.703 0 23 10.297 23 23 c 0 12.703 -10.297 23 -23 23 -12.703 0 -23 -10.297 -23 -23 0 -12.703 10.297 -23 23 -23 z" style="fill:url(#linearGradient3845);fill-opacity:1"/>
 </g>
 <path d="m 17.6 12 c -0.332 0 -0.6 0.267 -0.6 0.6 l 0 10.02 c -0.43 0.175 -0.886 0.454 -1.225 0.24 l -1.859 -1.859 l -2 2 l -1 -2 c -0.542 0.751 -0.99 1.608 -1.588 2.295 c -0.739 0.356 -1.328 0.705 -2.301 0.705 l -6.03 0 c 0 0.674 0.035 1.34 0.092 2 l 6.912 0 c 0.683 0.38 1.532 0.615 1.85 1.408 l 1.063 1.592 l 1 -2 l 2 2 l 2 -2 c 0.34 0.034 0.728 0.273 1.084 0.377 l 0 10.02 c 0 0.332 0.267 0.6 0.6 0.6 l 14.801 0 c 0.332 0 0.6 -0.267 0.6 -0.6 l 0 -11.211 l 1.916 4.311 l 2 -3.5 l 2 2 l 1 -3 l 2 2 c 0.71 -0.642 1.342 -1.474 2.1 -2 l 2.893 0 c 0.057 -0.66 0.092 -1.326 0.092 -2 l -3.084 0 l -2 -2 l -2 2 l -1 -3 l -2 2 l -2 -3.5 l -1.916 4.311 l 0 -11.211 c 0 -0.332 -0.267 -0.6 -0.6 -0.6 l -14.801 0 z" style="fill:#000;opacity:1;fill-opacity:0.098;stroke:none;fill-rule:nonzero"/>
 <path d="m 23.916 15 c -0.415 1.443 -0.63 2.96 -1.178 4.354 l -0.822 1.646 c -0.648 -0.083 -1.225 -0.05 -1.354 0.707 -0.244 0.274 -0.623 1.773 -0.742 0.91 l -0.904 -3.617 -1 4 -1.5 -1.5 c -0.531 0.053 -1.19 0.645 -1.641 0.359 l -1.859 -1.859 -2 2 -1 -2 c -0.542 0.751 -0.99 1.608 -1.588 2.295 -0.739 0.356 -1.328 0.705 -2.301 0.705 l -5 0 c -0.014 0.332 -0.025 0.665 -0.025 1 c 0 0.335 0.011 0.668 0.025 1 c 1.975 0 3.975 0 5.979 0 0.683 0.38 1.532 0.615 1.85 1.409 l 1.063 1.592 1 -2 2 2 2 -2 c 0.531 0.053 1.188 0.645 1.639 0.359 l 1.361 -1.359 1 4 1 -4 1 2 c 0.648 -0.083 1.225 -0.05 1.354 0.707 0.898 1.47 1.061 3.212 1.533 4.84 0.134 1 0.365 -0.525 0.551 -0.859 0.353 -1.299 0.936 -2.502 1.563 -3.688 0.66 0.088 1.232 0.053 1.25 -0.75 l 0.75 -2.25 2 1.5 2 -1.5 2 4.5 2 -3.5 2 2 1 -3 2 2 c 0.71 -0.642 1.342 -1.474 2.1 -2 l 3.959 0 c 0.014 -0.332 0.025 -0.665 0.025 -1 0 -0.335 -0.011 -0.668 -0.025 -1 l -4.059 0 -2 -2 -2 2 -1 -3 -2 2 -2 -3.5 -2 4.5 -2 -1.5 -2 1.5 -2 -4 c -0.667 0.09 -1.236 0.053 -1.191 -0.768 z" style="fill:#e63232;fill-opacity:1"/>
 <g>
  <path d="m 40.03 7.531 c 3.712 4.084 5.969 9.514 5.969 15.469 0 12.703 -10.297 23 -23 23 c -5.954 0 -11.384 -2.256 -15.469 -5.969 4.178 4.291 10.01 6.969 16.469 6.969 c 12.703 0 23 -10.298 23 -23 0 -6.462 -2.677 -12.291 -6.969 -16.469 z" style="opacity:0.1"/>
 </g>
 <path d="m 31.916 25 1.084 2.439 0 -6.879 -1.084 2.439 c -0.916 0 -0.916 2 0 2" style="fill:#000;fill-opacity:0.098"/>
 <g>
  <rect rx="0.6" y="11" x="16" height="26" width="16" style="fill:#e6e6e6;opacity:1;fill-opacity:1;stroke:none;fill-rule:nonzero"/>
  <rect y="12" x="17" height="22" width="14" style="fill:#333;opacity:1;fill-opacity:1;stroke:none;fill-rule:nonzero"/>
  <path d="m 25 17 -2 0.146 0 8.307 2 -0.254 0 -3.626 c 0.904 1.365 1.587 2.634 2.797 3.954 l 2.16 -0.621 c -1.156 -1.34 -2.02 -2.519 -2.808 -3.806 c 0.82 -1.209 1.847 -2.423 2.851 -3.509 l -2.238 -0.549 c -1.045 1.177 -1.93 2.394 -2.762 3.616 m -4.795 -1.957 c -0.029 0.004 -0.064 0.021 -0.092 0.049 -0.246 0.232 -0.478 0.465 -0.722 0.697 -0.107 0.103 0.002 0.226 0.049 0.312 l 0.496 0.685 0.371 0.5 c 0.052 0.072 0.068 0.08 0.041 0.131 -0.033 0.052 -0.06 0.095 -0.092 0.148 -0.482 0.81 -0.144 0.873 -1.177 1.136 l -0.791 0.131 c -0.117 0.039 -0.269 0.035 -0.277 0.197 0 0.328 -0.001 0.654 -0.001 0.98 -0.006 0.15 0.162 0.164 0.261 0.189 l 0.842 0.146 0.631 0.115 c 0.086 0.012 0.105 -0.008 0.125 0.056 0.258 1.088 0.595 0.838 0.033 1.789 l -0.453 0.631 c -0.06 0.109 -0.172 0.217 -0.058 0.328 0.238 0.236 0.467 0.474 0.707 0.711 0.105 0.103 0.242 -0.002 0.328 -0.049 l 0.697 -0.484 0.521 -0.351 c 0.072 -0.058 0.082 -0.072 0.135 -0.041 1.045 0.638 1.082 0.177 1.386 1.252 l 0.15 0.769 c 0.039 0.115 0.043 0.263 0.203 0.269 l 1.015 0 c 0.152 0 0.166 -0.174 0.185 -0.269 l 0.142 -0.818 0.101 -0.605 c 0.006 -0.058 0.004 -0.088 0.015 -0.107 1.224 -0.252 0.92 -0.607 1.916 -0.041 l 0.646 0.441 c 0.119 0.058 0.232 0.16 0.345 0.051 0.24 -0.226 0.478 -0.455 0.719 -0.679 0.107 -0.109 0.002 -0.234 -0.049 -0.318 l -0.001 0 -0.47 -0.646 -0.31 0.105 c -0.08 0.052 -0.185 0.033 -0.279 -0.09 l -0.679 -0.875 c -0.635 0.855 -1.662 1.408 -2.825 1.408 -1.916 0 -3.48 -1.521 -3.48 -3.388 0 -1.326 0.789 -2.474 1.933 -3.03 l 0 -0.779 c -0.039 0.019 -0.084 0.029 -0.117 0.041 -0.447 0.181 -0.476 0.263 -1.209 -0.146 l -0.646 -0.449 c -0.09 -0.039 -0.17 -0.113 -0.252 -0.094 m 2.22 1.742 c -0.972 0.535 -1.633 1.56 -1.633 2.726 0 1.72 1.441 3.126 3.214 3.126 1.095 0 2.056 -0.541 2.636 -1.363 l -0.031 -0.066 c -0.679 0.734 -1.447 1.211 -2.614 1.236 -1.455 0.025 -2.927 -1.236 -2.935 -2.898 -0.012 -1.072 0.496 -1.793 1.361 -2.306 l 0 -0.451" style="fill:#f2f2f2;fill-opacity:1;stroke:none;fill-rule:evenodd"/>
  <rect rx="0.5" y="35" x="22" height="1" width="4" style="fill:#333;opacity:1;fill-opacity:1;stroke:none;fill-rule:nonzero"/>
 </g>
</svg>
